Newaita-dark/mimetypes/24/payment-card-diners-club.svg

<svg height="24pt" viewBox="0 0 24 24" width="24pt" xmlns="http://www.w3.org/2000/svg" xmlns:xlink="http://www.w3.org/1999/xlink"><linearGradient id="a" gradientUnits="userSpaceOnUse" x1="12.403533" x2="12.403533" y1="19.53702825" y2="20.52931115627"><stop offset="0" stop-opacity=".27451"/><stop offset="1" stop-opacity="0"/></linearGradient><linearGradient id="b"><stop offset="0" stop-opacity=".313725"/><stop offset=".222222" stop-opacity=".27451"/><stop offset="1" stop-opacity="0"/></linearGradient><radialGradient id="c" cx="450.90894" cy="189.57936" gradientTransform="matrix(.00000013 -.0585994 -.105479 -.00000008 40.09027 46.208077)" gradientUnits="userSpaceOnUse" r="21.166656" xlink:href="#b"/><radialGradient id="d" cx="450.90894" cy="189.57936" gradientTransform="matrix(-.00000013 .0585994 .105479 .00000008 -16.275496 -7.134032)" gradientUnits="userSpaceOnUse" r="21.166656" xlink:href="#b"/><radialGradient id="e" cx="450.90894" cy="189.57936" gradientTransform="matrix(-.00000013 -.0585994 .105479 -.00000008 -16.275496 46.208077)" gradientUnits="userSpaceOnUse" r="21.166656" xlink:href="#b"/><radialGradient id="f" cx="450.90894" cy="189.57936" gradientTransform="matrix(.00000013 .0585994 -.105479 .00000008 40.090269 -7.134033)" gradientUnits="userSpaceOnUse" r="21.166656" xlink:href="#b"/><linearGradient id="g" gradientUnits="userSpaceOnUse" x1="11.907393" x2="11.907393" y1="23.01001606253" y2="1.17979540627"><stop offset="0" stop-color="#bdbdbd"/><stop offset="1" stop-color="#e0e0e0"/></linearGradient><linearGradient id="h" gradientUnits="userSpaceOnUse" x1="960" x2="960" y1="1575.1182" y2="375.1181"><stop offset="0" stop-color="#42a5f5"/><stop offset="1" stop-color="#64b5f6"/></linearGradient><path d="m3.472656 19.535156h16.867188v.996094h-16.867188zm0 0" fill="url(#a)"/><path d="m20.339844 19.535156h1.988281v-.992187h-1.988281zm0 0" fill="url(#c)"/><path d="m3.472656 19.535156h-1.984375v.996094h1.984375zm0 0" fill="url(#d)"/><path d="m3.472656 19.535156h-1.984375v-.992187h1.984375zm0 0" fill="url(#e)"/><path d="m20.339844 19.535156h1.988281v.996094h-1.988281zm0 0" fill="url(#f)"/><path d="m2.976562 4.652344h17.863282c.546875 0 .992187.445312.992187.992187v12.898438c0 .550781-.445312.992187-.992187.992187h-17.863282c-.546874 0-.992187-.441406-.992187-.992187v-12.898438c0-.546875.445313-.992187.992187-.992187zm0 0" fill="url(#g)"/><path d="m2.976562 4.652344c-.550781 0-.992187.441406-.992187.992187v.25c0-.550781.441406-.992187.992187-.992187h17.863282c.546875 0 .992187.441406.992187.992187v-.25c0-.550781-.445312-.992187-.992187-.992187zm0 0" fill="#fff" fill-opacity=".588235"/><path d="m1.984375 18.304688v.238281c0 .550781.441406.992187.992187.992187h17.863282c.546875 0 .992187-.441406.992187-.992187v-.238281c0 .550781-.445312.992187-.992187.992187h-17.863282c-.550781 0-.992187-.441406-.992187-.992187zm0 0" fill-opacity=".235294"/><g stroke="#212121" stroke-linecap="round" stroke-linejoin="round"><path d="m63.493937-115.759477h381.046945c11.665552 0 21.164645 9.499093 21.164645 21.164646v275.140392c0 11.748878-9.499093 21.164645-21.164645 21.164645h-381.046945c-11.665553 0-21.164646-9.415767-21.164646-21.164645v-275.140392c0-11.665553 9.499093-21.164646 21.164646-21.164646zm0 0" fill="none" stroke-width="3" transform="matrix(.0468795 0 0 .0468795 0 10.079087)"/><path d="m959.908345 655.055564c-177.305905 0-319.969448 142.663543-319.969448 319.969448s142.663543 319.969449 319.969448 319.969449 319.969449-142.663544 319.969449-319.969449-142.663544-319.969448-319.969449-319.969448zm-99.832987 101.722571v436.808686c-82.826737-37.791668-140.144099-121.248266-140.144099-218.561809 0-96.998612 57.317362-180.45521 140.144099-218.246877zm199.980905 0c82.826738 37.791667 139.829169 121.248265 139.829169 218.246877 0 97.313543-57.002431 180.770141-139.829169 218.561809zm0 0" fill="url(#h)" stroke-width="11.338583" transform="scale(.0124035)"/></g></svg>

<?xml version="1.0" encoding="UTF-8"?>
<svg xmlns="http://www.w3.org/2000/svg" xmlns:xlink="http://www.w3.org/1999/xlink" width="24pt" height="24pt" viewBox="0 0 24 24" version="1.1">
<defs>
<linearGradient id="linear0" gradientUnits="userSpaceOnUse" x1="254" y1="233.5" x2="254" y2="254.66667" gradientTransform="matrix(0.0468795,0,0,0.0468795,0.49614,8.590665)">
<stop offset="0" style="stop-color:rgb(0%,0%,0%);stop-opacity:0.27451;"/>
<stop offset="1" style="stop-color:rgb(0%,0%,0%);stop-opacity:0;"/>
</linearGradient>
<radialGradient id="radial0" gradientUnits="userSpaceOnUse" cx="450.90894" cy="189.57936" fx="450.90894" fy="189.57936" r="21.166656" gradientTransform="matrix(0.000000130628,-0.0585994,-0.105479,-0.0000000761539,40.09027,46.208077)">
<stop offset="0" style="stop-color:rgb(0%,0%,0%);stop-opacity:0.313725;"/>
<stop offset="0.222222" style="stop-color:rgb(0%,0%,0%);stop-opacity:0.27451;"/>
<stop offset="1" style="stop-color:rgb(0%,0%,0%);stop-opacity:0;"/>
</radialGradient>
<radialGradient id="radial1" gradientUnits="userSpaceOnUse" cx="450.90894" cy="189.57936" fx="450.90894" fy="189.57936" r="21.166656" gradientTransform="matrix(-0.000000130628,0.0585994,0.105479,0.0000000761539,-16.275496,-7.134032)">
<stop offset="0" style="stop-color:rgb(0%,0%,0%);stop-opacity:0.313725;"/>
<stop offset="0.222222" style="stop-color:rgb(0%,0%,0%);stop-opacity:0.27451;"/>
<stop offset="1" style="stop-color:rgb(0%,0%,0%);stop-opacity:0;"/>
</radialGradient>
<radialGradient id="radial2" gradientUnits="userSpaceOnUse" cx="450.90894" cy="189.57936" fx="450.90894" fy="189.57936" r="21.166656" gradientTransform="matrix(-0.000000130628,-0.0585994,0.105479,-0.0000000761539,-16.275496,46.208077)">
<stop offset="0" style="stop-color:rgb(0%,0%,0%);stop-opacity:0.313725;"/>
<stop offset="0.222222" style="stop-color:rgb(0%,0%,0%);stop-opacity:0.27451;"/>
<stop offset="1" style="stop-color:rgb(0%,0%,0%);stop-opacity:0;"/>
</radialGradient>
<radialGradient id="radial3" gradientUnits="userSpaceOnUse" cx="450.90894" cy="189.57936" fx="450.90894" fy="189.57936" r="21.166656" gradientTransform="matrix(0.000000130628,0.0585994,-0.105479,0.0000000761539,40.090269,-7.134033)">
<stop offset="0" style="stop-color:rgb(0%,0%,0%);stop-opacity:0.313725;"/>
<stop offset="0.222222" style="stop-color:rgb(0%,0%,0%);stop-opacity:0.27451;"/>
<stop offset="1" style="stop-color:rgb(0%,0%,0%);stop-opacity:0;"/>
</radialGradient>
<linearGradient id="linear1" gradientUnits="userSpaceOnUse" x1="254" y1="275.83334" x2="254" y2="-189.83333" gradientTransform="matrix(0.0468795,0,0,0.0468795,0,10.079087)">
<stop offset="0" style="stop-color:rgb(74.117647%,74.117647%,74.117647%);stop-opacity:1;"/>
<stop offset="1" style="stop-color:rgb(87.843137%,87.843137%,87.843137%);stop-opacity:1;"/>
</linearGradient>
<linearGradient id="linear2" gradientUnits="userSpaceOnUse" x1="960" y1="1575.1182" x2="960" y2="375.1181" >
<stop offset="0" style="stop-color:rgb(25.882353%,64.705882%,96.078431%);stop-opacity:1;"/>
<stop offset="1" style="stop-color:rgb(39.215686%,70.980392%,96.470588%);stop-opacity:1;"/>
</linearGradient>
</defs>
<g id="surface1">
<path style=" stroke:none;fill-rule:nonzero;fill:url(#linear0);" d="M 3.472656 19.535156 L 20.339844 19.535156 L 20.339844 20.53125 L 3.472656 20.53125 Z M 3.472656 19.535156 "/>
<path style=" stroke:none;fill-rule:nonzero;fill:url(#radial0);" d="M 20.339844 19.535156 L 22.328125 19.535156 L 22.328125 18.542969 L 20.339844 18.542969 Z M 20.339844 19.535156 "/>
<path style=" stroke:none;fill-rule:nonzero;fill:url(#radial1);" d="M 3.472656 19.535156 L 1.488281 19.535156 L 1.488281 20.53125 L 3.472656 20.53125 Z M 3.472656 19.535156 "/>
<path style=" stroke:none;fill-rule:nonzero;fill:url(#radial2);" d="M 3.472656 19.535156 L 1.488281 19.535156 L 1.488281 18.542969 L 3.472656 18.542969 Z M 3.472656 19.535156 "/>
<path style=" stroke:none;fill-rule:nonzero;fill:url(#radial3);" d="M 20.339844 19.535156 L 22.328125 19.535156 L 22.328125 20.53125 L 20.339844 20.53125 Z M 20.339844 19.535156 "/>
<path style=" stroke:none;fill-rule:nonzero;fill:url(#linear1);" d="M 2.976562 4.652344 L 20.839844 4.652344 C 21.386719 4.652344 21.832031 5.097656 21.832031 5.644531 L 21.832031 18.542969 C 21.832031 19.09375 21.386719 19.535156 20.839844 19.535156 L 2.976562 19.535156 C 2.429688 19.535156 1.984375 19.09375 1.984375 18.542969 L 1.984375 5.644531 C 1.984375 5.097656 2.429688 4.652344 2.976562 4.652344 Z M 2.976562 4.652344 "/>
<path style=" stroke:none;fill-rule:nonzero;fill:rgb(100%,100%,100%);fill-opacity:0.588235;" d="M 2.976562 4.652344 C 2.425781 4.652344 1.984375 5.09375 1.984375 5.644531 L 1.984375 5.894531 C 1.984375 5.34375 2.425781 4.902344 2.976562 4.902344 L 20.839844 4.902344 C 21.386719 4.902344 21.832031 5.34375 21.832031 5.894531 L 21.832031 5.644531 C 21.832031 5.09375 21.386719 4.652344 20.839844 4.652344 Z M 2.976562 4.652344 "/>
<path style=" stroke:none;fill-rule:nonzero;fill:rgb(0%,0%,0%);fill-opacity:0.235294;" d="M 1.984375 18.304688 L 1.984375 18.542969 C 1.984375 19.09375 2.425781 19.535156 2.976562 19.535156 L 20.839844 19.535156 C 21.386719 19.535156 21.832031 19.09375 21.832031 18.542969 L 21.832031 18.304688 C 21.832031 18.855469 21.386719 19.296875 20.839844 19.296875 L 2.976562 19.296875 C 2.425781 19.296875 1.984375 18.855469 1.984375 18.304688 Z M 1.984375 18.304688 "/>
<path style="fill:none;stroke-width:3;stroke-linecap:round;stroke-linejoin:round;stroke:rgb(12.941176%,12.941176%,12.941176%);stroke-opacity:1;stroke-miterlimit:4;" d="M 63.493937 -115.759477 L 444.540882 -115.759477 C 456.206434 -115.759477 465.705527 -106.260384 465.705527 -94.594831 L 465.705527 180.545561 C 465.705527 192.294439 456.206434 201.710206 444.540882 201.710206 L 63.493937 201.710206 C 51.828384 201.710206 42.329291 192.294439 42.329291 180.545561 L 42.329291 -94.594831 C 42.329291 -106.260384 51.828384 -115.759477 63.493937 -115.759477 Z M 63.493937 -115.759477 " transform="matrix(0.0468795,0,0,0.0468795,0,10.079087)"/>
<path style="fill-rule:nonzero;fill:url(#linear2);stroke-width:11.338583;stroke-linecap:round;stroke-linejoin:round;stroke:rgb(12.941176%,12.941176%,12.941176%);stroke-opacity:1;stroke-miterlimit:4;" d="M 959.908345 655.055564 C 782.60244 655.055564 639.938897 797.719107 639.938897 975.025012 C 639.938897 1152.330917 782.60244 1294.994461 959.908345 1294.994461 C 1137.21425 1294.994461 1279.877794 1152.330917 1279.877794 975.025012 C 1279.877794 797.719107 1137.21425 655.055564 959.908345 655.055564 Z M 860.075358 756.778135 L 860.075358 1193.586821 C 777.248621 1155.795153 719.931259 1072.338555 719.931259 975.025012 C 719.931259 878.0264 777.248621 794.569802 860.075358 756.778135 Z M 1060.056263 756.778135 C 1142.883001 794.569802 1199.885432 878.0264 1199.885432 975.025012 C 1199.885432 1072.338555 1142.883001 1155.795153 1060.056263 1193.586821 Z M 1060.056263 756.778135 " transform="matrix(0.0124035,0,0,0.0124035,0,0)"/>
</g>
</svg>
